X:1 
T:Perpetual Motion (Flats) 
M:C 
L:1/8 
Q:50 
C:Scott Tichenor 
N:Mandolin Cafe Web Page (www.mandolincafe.com) 
K:C 
"D7"a_gdc "Ddim"Bdf_a|"C7"gec_B "Cdim"Ac_e_g| 
"Bb7"fd_B_A "Bbdim"G_B_de|"Ab7"_ec_A_G "Abdim"F_ABd| 
|:"Gb7"_d_B_GE "Gbdim"_E_GAc|"E7"B_AED "Edim"_DEG_B| 
"D7"A_GDC "Ddim"BDF_A|"C7"GEC_B "Cdim"AC_E_G| 
"Bb7"FD_B_A "Bbdim"G_B_de|"Ab7"_ec_A_G "Abdim"F_ABd:|
